latex_in_markdown/.watch-latex-md-images/9bf3e2cf4b3d81ac596da8e8a90da5d6.svg

<ns0:svg xmlns:ns0="http://www.w3.org/2000/svg" xmlns:ns1="http://www.w3.org/1999/xlink" height="32.0708pt" version="1.1" viewBox="23.686 57.7833 86.7975 32.0708" width="86.7975pt" watch_lated_md:baseline="7.683500000000002" xmlns:watch_lated_md="https://github.com/Quansight/pearu-sandbox/latex_in_markdown/">
<ns0:defs>
<ns0:path d="m4.11465 -1.01627c0 -0.619676 -0.495741 -1.01627 -1.01627 -1.01627c-0.495741 0 -1.01627 0.396593 -1.01627 1.01627s0.495741 1.01627 1.01627 1.01627c0.495741 0 1.01627 -0.396593 1.01627 -1.01627z" id="g0-46" />
<ns0:path d="m8.9977 -17.1279c-0.123935 -0.322232 -0.173509 -0.396593 -0.42138 -0.396593s-0.297445 0.0743612 -0.42138 0.396593l-5.25486 14.8722c-0.470954 1.3385 -1.46244 1.61116 -2.32998 1.61116v0.644463c0.446167 -0.0495741 1.43765 -0.0495741 1.9086 -0.0495741c0.619676 0 1.61116 0 2.20605 0.0495741v-0.644463c-1.16499 -0.0495741 -1.3385 -0.84276 -1.3385 -1.1402c0 -0.223083 0.0495741 -0.347019 0.0991482 -0.495741l1.31371 -3.69327h6.49421l1.48722 4.2138c0.123935 0.297445 0.123935 0.347019 0.123935 0.446167c0 0.66925 -1.06584 0.66925 -1.5368 0.66925v0.644463c0.718825 -0.0495741 2.00775 -0.0495741 2.77615 -0.0495741c0.644463 0 1.88382 0 2.47871 0.0495741v-0.644463c-1.31371 0 -1.75988 0 -2.08211 -0.917121l-5.50273 -15.5663zm-0.991482 1.98296l3.02402 8.52675h-6.04804l3.02402 -8.52675z" id="g0-65" />
<ns0:path d="m15.0457 -6.27112h-0.446167c-0.545315 3.6437 -0.867547 5.62666 -5.23007 5.62666h-3.4454c-0.991482 0 -1.04106 -0.123935 -1.04106 -0.966695v-6.84123h2.32998c2.32998 0 2.55307 0.84276 2.55307 2.90009h0.446167v-6.44463h-0.446167c0 2.05733 -0.223083 2.90009 -2.55307 2.90009h-2.32998v-6.17198c0 -0.84276 0.0495741 -0.966695 1.04106 -0.966695h3.39583c3.84199 0 4.28816 1.5368 4.63518 4.83348h0.446167l-0.594889 -5.47794h-12.5422v0.644463c1.71031 0 1.98296 0 1.98296 1.11542v13.3602c0 1.11542 -0.272658 1.11542 -1.98296 1.11542v0.644463h12.8893l0.892334 -6.27112z" id="g0-69" />
<ns0:path d="m13.4346 -6.27112h-0.446167c-0.198296 2.45392 -0.520528 5.62666 -4.75911 5.62666h-2.3052c-0.991482 0 -1.04106 -0.123935 -1.04106 -0.966695v-13.5337c0 -0.892334 0.0495741 -1.1402 1.93339 -1.1402h0.545315v-0.644463c-1.01627 0.0495741 -2.20605 0.0495741 -3.22232 0.0495741c-0.768399 0 -2.15647 0 -2.8753 -0.0495741v0.644463c1.71031 0 1.98296 0 1.98296 1.11542v13.4098c0 1.11542 -0.272658 1.11542 -1.98296 1.11542v0.644463h11.5756l0.594889 -6.27112z" id="g0-76" />
<ns0:path d="m15.4175 -16.8552h-14.3021l-0.42138 5.47794h0.446167c0.322232 -4.11465 0.66925 -4.83348 4.48646 -4.83348c0.446167 0 1.16499 0 1.36329 0.0247871c0.470954 0.0743612 0.470954 0.371806 0.470954 0.941908v13.4346c0 0.892334 -0.0743612 1.16499 -2.13169 1.16499h-0.694037v0.644463c1.18978 -0.0247871 2.42913 -0.0495741 3.6437 -0.0495741s2.45392 0.0247871 3.6437 0.0495741v-0.644463h-0.694037c-2.05733 0 -2.13169 -0.272658 -2.13169 -1.16499v-13.4346c0 -0.545315 0 -0.84276 0.446167 -0.941908c0.198296 -0.0247871 0.917121 -0.0247871 1.36329 -0.0247871c3.79242 0 4.16422 0.718825 4.48646 4.83348h0.446167l-0.42138 -5.47794z" id="g0-84" />
<ns0:path d="m9.04727 -9.39429l3.66848 -5.27964c0.371806 -0.520528 1.11542 -1.58637 3.14796 -1.61116v-0.644463c-0.570102 0.0495741 -1.51201 0.0495741 -2.1069 0.0495741c-0.817973 0 -1.83424 0 -2.45392 -0.0495741v0.644463c0.793186 0.0743612 0.991482 0.570102 0.991482 0.966695c0 0.297445 -0.123935 0.495741 -0.297445 0.743612l-3.27189 4.73433l-3.66848 -5.354c-0.173509 -0.272658 -0.198296 -0.347019 -0.198296 -0.42138c0 -0.223083 0.272658 -0.644463 1.09063 -0.66925v-0.644463c-0.793186 0.0495741 -2.00775 0.0495741 -2.82572 0.0495741c-0.644463 0 -1.88382 0 -2.47871 -0.0495741v0.644463c1.36329 0 1.80945 0.0495741 2.35477 0.817973l4.7839 6.98995l-4.31295 6.27112c-1.06584 1.5368 -2.677 1.56158 -3.14796 1.56158v0.644463c0.570102 -0.0495741 1.51201 -0.0495741 2.1069 -0.0495741c0.66925 0 1.83424 0 2.45392 0.0495741v-0.644463c-0.768399 -0.0743612 -0.991482 -0.570102 -0.991482 -0.966695c0 -0.322232 0.123935 -0.495741 0.247871 -0.66925l3.96593 -5.7506l4.31295 6.29591c0.198296 0.272658 0.198296 0.347019 0.198296 0.42138c0 0.198296 -0.223083 0.619676 -1.09063 0.66925v0.644463c0.793186 -0.0495741 2.00775 -0.0495741 2.82572 -0.0495741c0.644463 0 1.88382 0 2.47871 0.0495741v-0.644463c-1.58637 0 -1.83424 -0.123935 -2.32998 -0.817973l-5.45315 -7.93186z" id="g0-88" />
<ns0:use id="g1-69" transform="scale(1.44011)" ns1:href="#g0-69" />
<ns0:use id="g1-76" transform="scale(1.44011)" ns1:href="#g0-76" />
<ns0:use id="g1-84" transform="scale(1.44011)" ns1:href="#g0-84" />
<ns0:use id="g1-88" transform="scale(1.44011)" ns1:href="#g0-88" />
<ns0:use id="g2-46" transform="scale(0.694534)" ns1:href="#g0-46" />
</ns0:defs>
<ns0:g id="page1">
<ns0:use x="27.9837" ns1:href="#g1-76" y="82.1706" />
<ns0:use x="36.7564" ns1:href="#g0-65" y="74.7176" />
<ns0:use x="49.0305" ns1:href="#g1-84" y="82.1706" />
<ns0:use x="67.4029" ns1:href="#g1-69" y="89.8541" />
<ns0:use x="85.7348" ns1:href="#g1-88" y="82.1706" />
</ns0:g>
</ns0:svg>

<ns0:svg xmlns:ns0="http://www.w3.org/2000/svg" xmlns:ns1="http://www.w3.org/1999/xlink" height="32.0708pt" version="1.1" viewBox="23.686 57.7833 86.7975 32.0708" width="86.7975pt" watch_lated_md:baseline="7.683500000000002" xmlns:watch_lated_md="https://github.com/Quansight/pearu-sandbox/latex_in_markdown/">
<ns0:defs>
<ns0:path d="M4.11465 -1.01627C4.11465 -1.63595 3.61891 -2.03254 3.09838 -2.03254C2.60264 -2.03254 2.08211 -1.63595 2.08211 -1.01627S2.57785 0 3.09838 0C3.59412 0 4.11465 -0.396593 4.11465 -1.01627Z" id="g0-46" />
<ns0:path d="M8.9977 -17.1279C8.87377 -17.4501 8.82419 -17.5244 8.57632 -17.5244S8.27888 -17.4501 8.15494 -17.1279L2.90009 -2.25562C2.42913 -0.917121 1.43765 -0.644463 0.570102 -0.644463V0C1.01627 -0.0495741 2.00775 -0.0495741 2.47871 -0.0495741C3.09838 -0.0495741 4.08986 -0.0495741 4.68475 0V-0.644463C3.51976 -0.694037 3.34625 -1.48722 3.34625 -1.78467C3.34625 -2.00775 3.39583 -2.13169 3.4454 -2.28041L4.75911 -5.97368H11.2533L12.7405 -1.75988C12.8645 -1.46244 12.8645 -1.41286 12.8645 -1.31371C12.8645 -0.644463 11.7986 -0.644463 11.3277 -0.644463V0C12.0465 -0.0495741 13.3354 -0.0495741 14.1038 -0.0495741C14.7483 -0.0495741 15.9876 -0.0495741 16.5825 0V-0.644463C15.2688 -0.644463 14.8227 -0.644463 14.5004 -1.56158L8.9977 -17.1279ZM8.00622 -15.1449L11.0302 -6.61814H4.9822L8.00622 -15.1449Z" id="g0-65" />
<ns0:path d="M15.0457 -6.27112H14.5996C14.0543 -2.62743 13.732 -0.644463 9.36951 -0.644463H5.92411C4.93262 -0.644463 4.88305 -0.768399 4.88305 -1.61116V-8.45239H7.21303C9.54302 -8.45239 9.7661 -7.60963 9.7661 -5.5523H10.2123V-11.9969H9.7661C9.7661 -9.93961 9.54302 -9.09685 7.21303 -9.09685H4.88305V-15.2688C4.88305 -16.1116 4.93262 -16.2355 5.92411 -16.2355H9.31993C13.1619 -16.2355 13.6081 -14.6987 13.9551 -11.402H14.4013L13.8064 -16.88H1.26414V-16.2355C2.97445 -16.2355 3.2471 -16.2355 3.2471 -15.1201V-1.75988C3.2471 -0.644463 2.97445 -0.644463 1.26414 -0.644463V0H14.1534L15.0457 -6.27112Z" id="g0-69" />
<ns0:path d="M13.4346 -6.27112H12.9884C12.7901 -3.81721 12.4679 -0.644463 8.2293 -0.644463H5.92411C4.93262 -0.644463 4.88305 -0.768399 4.88305 -1.61116V-15.1449C4.88305 -16.0372 4.93262 -16.2851 6.81644 -16.2851H7.36175V-16.9296C6.34549 -16.88 5.15571 -16.88 4.13944 -16.88C3.37104 -16.88 1.98296 -16.88 1.26414 -16.9296V-16.2851C2.97445 -16.2851 3.2471 -16.2851 3.2471 -15.1697V-1.75988C3.2471 -0.644463 2.97445 -0.644463 1.26414 -0.644463V0H12.8397L13.4346 -6.27112Z" id="g0-76" />
<ns0:path d="M15.4175 -16.8552H1.11542L0.694037 -11.3773H1.1402C1.46244 -15.4919 1.80945 -16.2107 5.62666 -16.2107C6.07283 -16.2107 6.79165 -16.2107 6.98995 -16.1859C7.4609 -16.1116 7.4609 -15.8141 7.4609 -15.244V-1.80945C7.4609 -0.917121 7.38654 -0.644463 5.32922 -0.644463H4.63518V0C5.82496 -0.0247871 7.06431 -0.0495741 8.27888 -0.0495741S10.7328 -0.0247871 11.9226 0V-0.644463H11.2285C9.17121 -0.644463 9.09685 -0.917121 9.09685 -1.80945V-15.244C9.09685 -15.7894 9.09685 -16.0868 9.54302 -16.1859C9.74131 -16.2107 10.4601 -16.2107 10.9063 -16.2107C14.6987 -16.2107 15.0705 -15.4919 15.3928 -11.3773H15.8389L15.4175 -16.8552Z" id="g0-84" />
<ns0:path d="M9.04727 -9.39429L12.7158 -14.6739C13.0876 -15.1945 13.8312 -16.2603 15.8637 -16.2851V-16.9296C15.2936 -16.88 14.3517 -16.88 13.7568 -16.88C12.9388 -16.88 11.9226 -16.88 11.3029 -16.9296V-16.2851C12.0961 -16.2107 12.2944 -15.715 12.2944 -15.3184C12.2944 -15.021 12.1704 -14.8227 11.9969 -14.5748L8.72504 -9.84046L5.05656 -15.1945C4.88305 -15.4671 4.85826 -15.5415 4.85826 -15.6158C4.85826 -15.8389 5.13092 -16.2603 5.94889 -16.2851V-16.9296C5.15571 -16.88 3.94114 -16.88 3.12317 -16.88C2.47871 -16.88 1.23935 -16.88 0.644463 -16.9296V-16.2851C2.00775 -16.2851 2.45392 -16.2355 2.99923 -15.4671L7.78313 -8.47717L3.47019 -2.20605C2.40434 -0.66925 0.793186 -0.644463 0.322232 -0.644463V0C0.892334 -0.0495741 1.83424 -0.0495741 2.42913 -0.0495741C3.09838 -0.0495741 4.26337 -0.0495741 4.88305 0V-0.644463C4.11465 -0.718825 3.89157 -1.21457 3.89157 -1.61116C3.89157 -1.93339 4.0155 -2.1069 4.13944 -2.28041L8.10537 -8.03101L12.4183 -1.73509C12.6166 -1.46244 12.6166 -1.38807 12.6166 -1.31371C12.6166 -1.11542 12.3935 -0.694037 11.526 -0.644463V0C12.3192 -0.0495741 13.5337 -0.0495741 14.3517 -0.0495741C14.9962 -0.0495741 16.2355 -0.0495741 16.8304 0V-0.644463C15.244 -0.644463 14.9962 -0.768399 14.5004 -1.46244L9.04727 -9.39429Z" id="g0-88" />
<ns0:use id="g1-69" transform="scale(1.44011)" ns1:href="#g0-69" />
<ns0:use id="g1-76" transform="scale(1.44011)" ns1:href="#g0-76" />
<ns0:use id="g1-84" transform="scale(1.44011)" ns1:href="#g0-84" />
<ns0:use id="g1-88" transform="scale(1.44011)" ns1:href="#g0-88" />
<ns0:use id="g2-46" transform="scale(0.694534)" ns1:href="#g0-46" />
</ns0:defs>
<ns0:g id="page1">
<ns0:use x="27.9837" ns1:href="#g1-76" y="82.1706" />
<ns0:use x="36.7564" ns1:href="#g0-65" y="74.7176" />
<ns0:use x="49.0305" ns1:href="#g1-84" y="82.1706" />
<ns0:use x="67.4029" ns1:href="#g1-69" y="89.8541" />
<ns0:use x="85.7348" ns1:href="#g1-88" y="82.1706" />
</ns0:g>
</ns0:svg>
